elements/rpg-character/lib/accessories/7.svg

<svg xmlns="http://www.w3.org/2000/svg" fill="none" width="113" height="142" viewBox="0 0 113 142"><path d="M50 88.5h1m-4 0h-1" stroke="#632083"/><path d="M47 90v-3h3v3h-3Zm2 12h-1v-1h-.5v-2H47v-1.5h-.5V96H46v-5.5h.5V90h4v.5h.5V96h-.5v1.5H50V99h-.5v2H49v1Z" fill="#7D3DA4"/><path d="M47 91v-1h3v1h-.429v1h-.714v1h-.714v-1h-.714v-1H47Z" fill="#632083"/></svg>

<svg width="113" height="142" viewBox="0 0 113 142" fill="none" xmlns="http://www.w3.org/2000/svg">
<path d="M50 88.5H51M47 88.5H46" stroke="#632083"/>
<path d="M47 90V87H50V90H47Z" fill="#7D3DA4"/>
<path d="M49 102H48V101H47.5V99H47V97.5H46.5V96H46V91.5V90.5H46.5V90H47H50.5V90.5H51V96H50.5V97.5H50V99H49.5V101H49V102Z" fill="#7D3DA4"/>
<path d="M47 91V90H50V91H49.5714V92H48.8571V93H48.1429V92H47.4286V91H47Z" fill="#632083"/>
</svg>
